public/assets/images/icons/black/60a.svg

<svg xmlns="http://www.w3.org/2000/svg" viewBox="0 0 16 16"><title>60a-black</title><g><path d="M3.09 8.09c0-1.57.82-2.28 1.7-2.28a1.69 1.69 0 0 1 1.21.51l-.5.58a.93.93 0 0 0-.65-.3c-.48 0-.85.4-.85 1.49s.33 1.35.68 1.35.53-.2.53-.68-.21-.61-.57-.61a.76.76 0 0 0-.64.46l-.06-.61a1.18 1.18 0 0 1 .89-.5 1.16 1.16 0 0 1 1.25 1.26 1.35 1.35 0 0 1-1.4 1.41c-.81 0-1.59-.61-1.59-2.08zM6.56 8c0-1.43.6-2.16 1.5-2.16s1.51.71 1.51 2.16-.6 2.2-1.51 2.2-1.5-.8-1.5-2.2zm2.09 0c0-1.14-.26-1.4-.59-1.4s-.58.26-.58 1.4.26 1.45.58 1.45.59-.33.59-1.45zM10.09 9.18c0-.69.55-1.06 1.85-1.2a.46.46 0 0 0-.52-.47 1.79 1.79 0 0 0-.87.29l-.35-.64a2.74 2.74 0 0 1 1.4-.43c.84 0 1.31.48 1.31 1.49v1.87h-.8l-.11-.33a1.46 1.46 0 0 1-.95.41.94.94 0 0 1-.96-.99zm1.85 0v-.61c-.7.09-.92.29-.92.54s.14.31.37.31a.76.76 0 0 0 .55-.28zM8 1a7 7 0 1 0 7 7 7 7 0 0 0-7-7zm0 12.61a5.61 5.61 0 1 1 5.61-5.61 5.62 5.62 0 0 1-5.61 5.61z"/></g></svg>

<svg id="license" xmlns="http://www.w3.org/2000/svg" viewBox="0 0 16 16"><title>60a-black</title><g id="_60a" data-name="60a"><path d="M3.09,8.09c0-1.57.82-2.28,1.7-2.28A1.69,1.69,0,0,1,6,6.32L5.5,6.9a.93.93,0,0,0-.65-.3C4.37,6.6,4,7,4,8.09s.33,1.35.68,1.35.53-.2.53-.68S5,8.15,4.64,8.15A.76.76,0,0,0,4,8.61L3.94,8a1.18,1.18,0,0,1,.89-.5A1.16,1.16,0,0,1,6.08,8.76a1.35,1.35,0,0,1-1.4,1.41C3.87,10.17,3.09,9.56,3.09,8.09Z"/><path d="M6.56,8c0-1.43.6-2.16,1.5-2.16S9.57,6.55,9.57,8s-.6,2.2-1.51,2.2S6.56,9.4,6.56,8ZM8.65,8c0-1.14-.26-1.4-.59-1.4s-.58.26-.58,1.4.26,1.45.58,1.45S8.65,9.12,8.65,8Z"/><path d="M10.09,9.18c0-.69.55-1.06,1.85-1.2a.46.46,0,0,0-.52-.47,1.79,1.79,0,0,0-.87.29l-.35-.64a2.74,2.74,0,0,1,1.4-.43c.84,0,1.31.48,1.31,1.49v1.87h-.8L12,9.76h0a1.46,1.46,0,0,1-.95.41A.94.94,0,0,1,10.09,9.18Zm1.85,0V8.57c-.7.09-.92.29-.92.54s.14.31.37.31A.76.76,0,0,0,11.94,9.14Z"/><path d="M8,1a7,7,0,1,0,7,7A7,7,0,0,0,8,1ZM8,13.61A5.61,5.61,0,1,1,13.61,8,5.62,5.62,0,0,1,8,13.61Z"/></g></svg>
